X:1
T:Lachlan Tigers
M:4/4
L:1/4
K:F
 F| A A A A| A A A A/2A/2| G A G E| C3 C| G3/2 G/2 G G| G G G G/2G/2|\
 D D F G| A3 A/2A/2| D3/2 D/2 D D| d d d d| c B A B| c3 F| F F E/2E/2 E|\
 D E F G| A G F E| D3||
